app/images/icons/facebook.svg

<svg fill="none" height="21" viewBox="0 0 12 21" width="12" xmlns="http://www.w3.org/2000/svg"><path d="m10.3984 11.75.5469-3.59375h-3.47655v-2.34375c0-1.01562.46875-1.95312 2.03125-1.95312h1.6016v-3.085942s-1.44535-.273438-2.81254-.273438c-2.85156 0-4.72656 1.75781-4.72656 4.88281v2.77344h-3.203125v3.59375h3.203125v8.75h3.90625v-8.75z" fill="#fff"/></svg>

<svg width="12" height="21" viewBox="0 0 12 21" fill="none" xmlns="http://www.w3.org/2000/svg">
<path d="M10.3984 11.75L10.9453 8.15625H7.46875V5.8125C7.46875 4.79688 7.9375 3.85938 9.5 3.85938H11.1016V0.773438C11.1016 0.773438 9.65625 0.5 8.28906 0.5C5.4375 0.5 3.5625 2.25781 3.5625 5.38281V8.15625H0.359375V11.75H3.5625V20.5H7.46875V11.75H10.3984Z" fill="white"/>
</svg>
